assets/illustrations/default/collaboration-1.svg

<svg xmlns="http://www.w3.org/2000/svg" width="1080" height="1081" fill="none"><g clip-path="url(#a)"><path fill="#1968F0" d="M369.611 173.819c0-65.89-53.415-119.305-119.305-119.305S131 107.929 131 173.819s53.415 119.306 119.306 119.306 119.305-53.415 119.305-119.306"/><path fill="#C5D9FB" d="M1079.18 605.893c0-249.05-202.362-450.944-451.992-450.944S175.192 356.843 175.192 605.893c0 249.049 202.366 450.947 451.996 450.947s451.992-201.898 451.992-450.947"/><path fill="#35DE90" d="M438.482 735.843c27.312 0 49.452-22.141 49.452-49.452 0-27.312-22.14-49.453-49.452-49.453s-49.452 22.141-49.452 49.453c0 27.311 22.141 49.452 49.452 49.452M244.4 720.827c27.312 0 49.452-22.141 49.452-49.452 0-27.312-22.14-49.452-49.452-49.452s-49.452 22.14-49.452 49.452 22.141 49.452 49.452 49.452"/><path fill="#35DE90" d="m377.621 472.935 12.121 217.917 98.53-5.481-12.12-217.916z"/><path fill="#35DE90" d="m444.832 636.292-198.738-14.551-7.205 98.412 198.737 14.551z"/><path fill="#8C3A03" d="M248.804 444.889h-90.323l-6.887 6.887v169.808h66.726v-27.21h30.484l6.887-6.887V451.776z"/><path fill="#000" fill-rule="evenodd" d="M228.479 518.643a1.69 1.69 0 0 1 2.231.871l16.283 37.148h-19.415a1.693 1.693 0 0 1 0-3.387h14.232l-14.202-32.401a1.69 1.69 0 0 1 .871-2.231" clip-rule="evenodd"/><path fill="#1F1F1F" d="m262.353 432.129-103.195 8.694c-4.29.339-7.564 3.952-7.564 8.242v15.694a8.335 8.335 0 0 0 8.355 8.354h95.742c3.613 0 6.888-2.37 7.904-5.87l7.451-24.388c1.807-5.645-2.822-11.177-8.693-10.726"/><path fill="#1F1F1F" d="M159.158 585.001h-7.564V463.064h29.016z"/><path fill="#8C3A03" d="M152.948 557.227h20.662l3.048-29.694h-30.484v22.92c.113 3.725 3.048 6.774 6.774 6.774"/><path fill="url(#b)" d="m313.385 725.794 1.355-36.469 55.21 40.646z"/><path fill="url(#c)" d="m52.575 630.73 99.017-10.839h67.178l98.34 7.79-8.355 220.276H69.85z"/><path fill="#35DE90" d="M116.141 914.797c27.311 0 49.452-22.14 49.452-49.452s-22.141-49.452-49.452-49.452c-27.312 0-49.452 22.14-49.452 49.452s22.14 49.452 49.452 49.452M56.302 729.52c27.311 0 49.452-22.14 49.452-49.451 0-27.312-22.14-49.453-49.452-49.453S6.85 652.757 6.85 680.069c0 27.311 22.14 49.451 49.452 49.451"/><path fill="#8C3A03" d="M999.39 638.631H888.518a14.65 14.65 0 0 1-14.677-14.677V520.082a14.65 14.65 0 0 1 14.677-14.678H999.39a14.65 14.65 0 0 1 14.68 14.678v103.872a14.65 14.65 0 0 1-14.68 14.677"/><path fill="#8C3A03" d="M859.164 659.745H748.292a14.65 14.65 0 0 1-14.678-14.678V541.195a14.65 14.65 0 0 1 14.678-14.677h110.872a14.65 14.65 0 0 1 14.677 14.677v103.872a14.65 14.65 0 0 1-14.677 14.678"/><path fill="#8C3A03" d="M948.808 547.97h-60.404a14.65 14.65 0 0 1-14.677-14.677v-55.888a14.65 14.65 0 0 1 14.677-14.677h60.404a14.65 14.65 0 0 1 14.677 14.677v55.888a14.65 14.65 0 0 1-14.677 14.677M848.551 549.549h-60.404a14.65 14.65 0 0 1-14.677-14.677v-55.888a14.65 14.65 0 0 1 14.677-14.677h60.404a14.65 14.65 0 0 1 14.678 14.677v55.888a14.65 14.65 0 0 1-14.678 14.677"/><path fill="#0096FA" d="m650.403 588.728-28.565 99.694 129.275-3.049 52.614-96.645z"/><path fill="#0096FA" d="M623.532 688.085c27.312 0 49.452-22.141 49.452-49.453 0-27.311-22.14-49.451-49.452-49.451s-49.452 22.14-49.452 49.451c0 27.312 22.141 49.453 49.452 49.453"/><path fill="#0096FA" d="m656.161 592.567-5.645-119.001-83.888 4.404 7.565 166.759z"/><path fill="#FCAA73" d="M818.969 418.58h90.324l6.887 6.887v169.808h-66.727v-27.21h-30.484l-6.887-6.887V425.467z"/><path fill="#F06305" fill-rule="evenodd" d="M839.307 492.301a1.73 1.73 0 0 1 .898 2.28l-14.075 32.35h14.067a1.732 1.732 0 0 1 0 3.466h-16.71a1.735 1.735 0 0 1-1.589-2.425l15.129-34.774a1.733 1.733 0 0 1 2.28-.897" clip-rule="evenodd"/><path fill="#0096FA" d="M1049.41 642.358c-4.63-25.516-22.81-46.517-47.54-54.646l-211.804.113c-35.452 6.548-47.42 29.129-51.936 54.645l12.871 158.179 97.888 1.129H1075.6z"/><path fill="#0096FA" d="m975.112 801.78 103.648 18.855-15.92-90.21H962.692z"/><path fill="url(#d)" d="m959.986 694.295 15.806 107.484H757.774z"/><path fill="url(#e)" d="m762.744 676.115 22.017 119.453H710.47z"/><path fill="#0096FA" d="M1030.55 881.15c27.31 0 49.45-22.14 49.45-49.452s-22.14-49.452-49.45-49.452-49.454 22.14-49.454 49.452 22.144 49.452 49.454 49.452"/><path fill="#35DE90" d="M716.338 449.403c0-13.096-10.613-23.822-23.822-23.822H518.53v72.259c4.404-2.371 9.371-3.839 14.791-3.839 16.822 0 30.484 13.661 30.484 30.484 0 16.822-13.662 30.484-30.484 30.484-5.307 0-10.387-1.355-14.791-3.839v72.259h72.259c-2.371 4.403-3.839 9.371-3.839 14.79 0 16.823 13.662 30.485 30.484 30.485s30.484-13.662 30.484-30.485c0-5.306-1.354-10.387-3.838-14.79h72.258z"/><path fill="#0C4EC0" d="M730.79 687.632c3.387 3.726 5.871 8.242 7.113 13.436 3.838 16.371-6.21 32.742-22.581 36.581s-32.742-6.21-36.581-22.581c-1.242-5.194-1.016-10.387.338-15.242l-70.339 16.71 16.71 70.339c3.726-3.387 8.242-5.871 13.436-7.113 16.371-3.839 32.742 6.21 36.581 22.581 3.838 16.371-6.21 32.742-22.581 36.581-5.194 1.241-10.387 1.016-15.242-.339l16.71 70.339 169.356-40.193c12.758-3.049 20.661-15.807 17.613-28.678l-40.194-169.357z"/><path fill="#072F73" d="M546.193 822.891c16.836 0 30.484-13.648 30.484-30.484s-13.648-30.484-30.484-30.484-30.484 13.648-30.484 30.484 13.648 30.484 30.484 30.484"/><path fill="#072F73" d="m327.16 845.811 17.5-173.082 71.92 7.226a30.6 30.6 0 0 0-5.306 14.226c-1.694 16.71 10.5 31.613 27.21 33.307 16.709 1.694 31.613-10.5 33.306-27.21.565-5.306-.338-10.5-2.258-15.016l71.92 7.226-19.871 196.792-173.082-17.501c-13.097-1.242-22.581-12.984-21.339-25.968"/><path fill="#0096FA" d="M533.323 494.115c-5.306 0-10.387 1.355-14.79 3.839v-72.259H344.547c-13.096 0-23.822 10.613-23.822 23.823v173.986h72.258c-2.371 4.403-3.838 9.371-3.838 14.79 0 16.823 13.661 30.484 30.484 30.484 16.822 0 30.484-13.661 30.484-30.484 0-5.306-1.355-10.387-3.839-14.79h72.259v-72.259c4.403 2.371 9.371 3.839 14.79 3.839 16.823 0 30.484-13.662 30.484-30.484s-13.661-30.485-30.484-30.485"/><path fill="#FCAA73" d="m911.325 754.585-75.759-41.887-42.452-.791-28.903 9.485 4.516 8.693 16.822-1.355-21.451 10.274 6.661 8.694 43.694-10.839-31.162 18.178 5.081 7.226 33.533-8.92-22.92 12.984 4.29 6.775 32.743-8.468 19.984 17.5 16.484 2.032z"/><path fill="#0096FA" d="m981.213 775.472-25.178-15.806-60.968-29.242-35.001 76.436 151.294 70.678z"/><path fill="#FCAA73" d="m613.596 411.016 18.516-.79-4.855 31.5-10.5-.452zM612.58 405.484l-19.645 1.468 8.919 42.227 14.565-1.807z"/><path fill="#FCAA73" d="m594.967 413.613-16.822 2.936 8.806 28 11.403-2.371z"/><path fill="#FCAA73" d="m579.613 421.065-14.226 3.162 8.806 19.645 9.033-2.823z"/><path fill="#8C3A03" d="m812.082 473.339 54.759-34.549 49.339 120.469V425.467l-6.887-6.887h-90.324l-6.887 6.887z"/><path fill="#FCAA73" d="M914.825 530.809h-20.661l-3.049-29.694h30.484v22.92c-.113 3.838-3.048 6.774-6.774 6.774"/><path fill="#8C3A03" d="m402.467 415.871-18.065 4.065 12.984 29.242 9.936-3.274zM402.015 410.226l19.419-3.613 2.371 43.017-14.564 2.032z"/><path fill="#8C3A03" d="m421.208 413.615 16.936-1.581-1.129 29.355-11.63.565z"/><path fill="#8C3A03" d="m437.805 416.662 14.677-.564-3.387 21.226-9.484-.339zM255.691 754.698l71.92-47.985 42.339-4.403 29.581 7-3.725 9.032h-16.823l22.129 8.468-5.871 9.258-44.484-7.113 32.629 15.468-4.516 7.677-34.097-6.096 23.935 10.952-3.725 7.225-33.307-5.758-18.403 19.194-16.372 3.387z"/><path fill="#35DE90" d="M274.693 725.161 89.922 823.522l46.369 87.104 184.77-98.362z"/><path fill="#35DE90" d="m163.018 853.158-60.52-189.87-94.02 29.969 60.52 189.87z"/></g><defs><linearGradient id="b" x1="354.32" x2="309.106" y1="701.362" y2="732.497" gradientUnits="userSpaceOnUse"><stop offset=".118" stop-color="#35DE90"/><stop offset=".415" stop-color="#34DB8E"/><stop offset=".622" stop-color="#2FD287"/><stop offset=".801" stop-color="#28C37B"/><stop offset=".963" stop-color="#1EAD6B"/><stop offset="1" stop-color="#1BA766"/></linearGradient><linearGradient id="c" x1="244.361" x2="120.927" y1="587.557" y2="881.874" gradientUnits="userSpaceOnUse"><stop offset=".118" stop-color="#35DE90"/><stop offset=".415" stop-color="#34DB8E"/><stop offset=".622" stop-color="#2FD287"/><stop offset=".801" stop-color="#28C37B"/><stop offset=".963" stop-color="#1EAD6B"/><stop offset="1" stop-color="#1BA766"/></linearGradient><linearGradient id="d" x1="851.522" x2="938.647" y1="736.824" y2="869.608" gradientUnits="userSpaceOnUse"><stop offset=".037" stop-color="#0096FA"/><stop offset=".235" stop-color="#0094F7"/><stop offset=".399" stop-color="#018CED"/><stop offset=".55" stop-color="#027FDB"/><stop offset=".694" stop-color="#036CC3"/><stop offset=".833" stop-color="#0454A4"/><stop offset=".966" stop-color="#06377E"/><stop offset="1" stop-color="#072F73"/></linearGradient><linearGradient id="e" x1="667.387" x2="817.003" y1="689.955" y2="789.024" gradientUnits="userSpaceOnUse"><stop offset=".46" stop-color="#0096FA"/><stop offset=".551" stop-color="#0189EA"/><stop offset=".729" stop-color="#0369BF"/><stop offset=".976" stop-color="#07347A"/><stop offset="1" stop-color="#072F73"/></linearGradient><clipPath id="a"><path fill="#fff" d="M0 .514h1080v1080H0z"/></clipPath></defs></svg>

<svg width="1080" height="1081" viewBox="0 0 1080 1081" fill="none" xmlns="http://www.w3.org/2000/svg">
<g clip-path="url(#clip0_18735_3123)">
<path d="M369.611 173.819C369.611 107.929 316.196 54.5136 250.306 54.5136C184.415 54.5136 131 107.929 131 173.819C131 239.71 184.415 293.125 250.306 293.125C316.196 293.125 369.611 239.71 369.611 173.819Z" fill="#1968F0"/>
<path d="M1079.18 605.893C1079.18 356.843 876.818 154.949 627.188 154.949C377.558 154.949 175.192 356.843 175.192 605.893C175.192 854.942 377.558 1056.84 627.188 1056.84C876.818 1056.84 1079.18 854.942 1079.18 605.893Z" fill="#B2DFFD"/>
<path d="M438.482 735.843C465.794 735.843 487.934 713.702 487.934 686.391C487.934 659.079 465.794 636.938 438.482 636.938C411.171 636.938 389.03 659.079 389.03 686.391C389.03 713.702 411.171 735.843 438.482 735.843Z" fill="#35DE90"/>
<path d="M244.4 720.827C271.712 720.827 293.852 698.686 293.852 671.375C293.852 644.063 271.712 621.923 244.4 621.923C217.089 621.923 194.948 644.063 194.948 671.375C194.948 698.686 217.089 720.827 244.4 720.827Z" fill="#35DE90"/>
<path d="M377.621 472.935L389.742 690.852L488.272 685.371L476.152 467.455L377.621 472.935Z" fill="#35DE90"/>
<path d="M444.832 636.292L246.094 621.741L238.889 720.153L437.626 734.704L444.832 636.292Z" fill="#35DE90"/>
<path d="M248.804 444.889H158.481L151.594 451.776V621.584H218.32V594.374H248.804C251.514 591.665 252.982 590.197 255.691 587.487V451.776L248.804 444.889Z" fill="#8C3A03"/>
<path fill-rule="evenodd" clip-rule="evenodd" d="M228.479 518.643C229.336 518.267 230.335 518.657 230.71 519.514L246.993 556.662H227.578C226.643 556.662 225.885 555.904 225.885 554.968C225.885 554.033 226.643 553.275 227.578 553.275H241.81L227.608 520.874C227.232 520.017 227.622 519.018 228.479 518.643Z" fill="black"/>
<path d="M262.353 432.129L159.158 440.823C154.868 441.162 151.594 444.775 151.594 449.065V464.759C151.594 469.388 155.32 473.113 159.949 473.113H255.691C259.304 473.113 262.579 470.743 263.595 467.243L271.046 442.855C272.853 437.21 268.224 431.678 262.353 432.129Z" fill="#1F1F1F"/>
<path d="M159.158 585.001H151.594V463.064H180.61L159.158 585.001Z" fill="#1F1F1F"/>
<path d="M152.948 557.227H173.61L176.658 527.533H146.174V550.453C146.287 554.178 149.222 557.227 152.948 557.227Z" fill="#8C3A03"/>
<path d="M313.385 725.794L314.74 689.325L369.95 729.971L313.385 725.794Z" fill="url(#paint0_linear_18735_3123)"/>
<path d="M52.5752 630.73L151.592 619.891H218.77L317.11 627.681L308.755 847.957H69.8495L52.5752 630.73Z" fill="url(#paint1_linear_18735_3123)"/>
<path d="M116.141 914.797C143.452 914.797 165.593 892.657 165.593 865.345C165.593 838.033 143.452 815.893 116.141 815.893C88.8289 815.893 66.6885 838.033 66.6885 865.345C66.6885 892.657 88.8289 914.797 116.141 914.797Z" fill="#35DE90"/>
<path d="M56.3016 729.52C83.6133 729.52 105.754 707.38 105.754 680.069C105.754 652.757 83.6133 630.616 56.3016 630.616C28.99 630.616 6.84961 652.757 6.84961 680.069C6.84961 707.38 28.99 729.52 56.3016 729.52Z" fill="#35DE90"/>
<path d="M999.39 638.631H888.518C880.389 638.631 873.841 632.083 873.841 623.954V520.082C873.841 511.953 880.389 505.404 888.518 505.404H999.39C1007.52 505.404 1014.07 511.953 1014.07 520.082V623.954C1014.07 632.083 1007.52 638.631 999.39 638.631Z" fill="#8C3A03"/>
<path d="M859.164 659.745H748.292C740.163 659.745 733.614 653.196 733.614 645.067V541.195C733.614 533.066 740.163 526.518 748.292 526.518H859.164C867.293 526.518 873.841 533.066 873.841 541.195V645.067C873.841 653.196 867.293 659.745 859.164 659.745Z" fill="#8C3A03"/>
<path d="M948.808 547.97H888.404C880.275 547.97 873.727 541.422 873.727 533.293V477.405C873.727 469.276 880.275 462.728 888.404 462.728H948.808C956.937 462.728 963.485 469.276 963.485 477.405V533.293C963.485 541.422 956.937 547.97 948.808 547.97Z" fill="#8C3A03"/>
<path d="M848.551 549.549H788.147C780.018 549.549 773.47 543.001 773.47 534.872V478.984C773.47 470.855 780.018 464.307 788.147 464.307H848.551C856.68 464.307 863.229 470.855 863.229 478.984V534.872C863.229 543.001 856.68 549.549 848.551 549.549Z" fill="#8C3A03"/>
<path d="M650.403 588.728L621.838 688.422L751.113 685.373L803.727 588.728H650.403Z" fill="#0096FA"/>
<path d="M623.532 688.085C650.844 688.085 672.984 665.944 672.984 638.632C672.984 611.321 650.844 589.181 623.532 589.181C596.221 589.181 574.08 611.321 574.08 638.632C574.08 665.944 596.221 688.085 623.532 688.085Z" fill="#0096FA"/>
<path d="M656.161 592.567L650.516 473.566L566.628 477.97L574.193 644.729L656.161 592.567Z" fill="#0096FA"/>
<path d="M818.969 418.58H909.293L916.18 425.467V595.275H849.453V568.065H818.969C816.259 565.355 814.792 563.888 812.082 561.178V425.467L818.969 418.58Z" fill="#FCAA73"/>
<path fill-rule="evenodd" clip-rule="evenodd" d="M839.307 492.301C840.185 492.682 840.587 493.703 840.205 494.581L826.13 526.931H840.197C841.154 526.931 841.929 527.707 841.929 528.664C841.929 529.621 841.154 530.397 840.197 530.397H823.487C822.903 530.397 822.358 530.102 822.037 529.614C821.717 529.125 821.665 528.508 821.898 527.972L837.027 493.198C837.409 492.321 838.43 491.919 839.307 492.301Z" fill="#F06305"/>
<path d="M1049.41 642.358C1044.78 616.842 1026.6 595.841 1001.87 587.712L790.066 587.825C754.614 594.373 742.646 616.954 738.13 642.47L751.001 800.649L848.889 801.778H915.615H1075.6L1049.41 642.358Z" fill="#0096FA"/>
<path d="M975.112 801.78L1078.76 820.635L1062.84 730.425H962.692L975.112 801.78Z" fill="#0096FA"/>
<path d="M959.986 694.295L975.792 801.779H757.774L959.986 694.295Z" fill="url(#paint2_linear_18735_3123)"/>
<path d="M762.744 676.115L784.761 795.568H710.47L762.744 676.115Z" fill="url(#paint3_linear_18735_3123)"/>
<path d="M1030.55 881.15C1057.86 881.15 1080 859.01 1080 831.698C1080 804.386 1057.86 782.246 1030.55 782.246C1003.24 782.246 981.096 804.386 981.096 831.698C981.096 859.01 1003.24 881.15 1030.55 881.15Z" fill="#0096FA"/>
<path d="M716.338 449.403C716.338 436.307 705.725 425.581 692.516 425.581H518.53V497.84C522.934 495.469 527.901 494.001 533.321 494.001C550.143 494.001 563.805 507.662 563.805 524.485C563.805 541.307 550.143 554.969 533.321 554.969C528.014 554.969 522.934 553.614 518.53 551.13V623.389H590.789C588.418 627.792 586.95 632.76 586.95 638.179C586.95 655.002 600.612 668.664 617.434 668.664C634.257 668.664 647.918 655.002 647.918 638.179C647.918 632.873 646.564 627.792 644.08 623.389H716.338V449.403Z" fill="#35DE90"/>
<path d="M730.79 687.632C734.177 691.358 736.661 695.874 737.903 701.068C741.741 717.439 731.693 733.81 715.322 737.649C698.951 741.488 682.58 731.439 678.741 715.068C677.499 709.874 677.725 704.681 679.079 699.826L608.74 716.536L625.45 786.875C629.176 783.488 633.692 781.004 638.886 779.762C655.257 775.923 671.628 785.972 675.467 802.343C679.305 818.714 669.257 835.085 652.886 838.924C647.692 840.165 642.499 839.94 637.644 838.585L654.354 908.924L823.71 868.731C836.468 865.682 844.371 852.924 841.323 840.053L801.129 670.696L730.79 687.632Z" fill="#0C4EC0"/>
<path d="M546.193 822.891C563.029 822.891 576.677 809.243 576.677 792.407C576.677 775.571 563.029 761.923 546.193 761.923C529.357 761.923 515.709 775.571 515.709 792.407C515.709 809.243 529.357 822.891 546.193 822.891Z" fill="#072F73"/>
<path d="M327.16 845.811L344.66 672.729L416.58 679.955C413.758 684.02 411.838 688.875 411.274 694.181C409.58 710.891 421.774 725.794 438.484 727.488C455.193 729.182 470.097 716.988 471.79 700.278C472.355 694.972 471.452 689.778 469.532 685.262L541.452 692.488L521.581 889.28L348.499 871.779C335.402 870.537 325.918 858.795 327.16 845.811Z" fill="#072F73"/>
<path d="M533.323 494.115C528.017 494.115 522.936 495.47 518.533 497.954V425.695H344.547C331.451 425.695 320.725 436.308 320.725 449.518V623.504H392.983C390.612 627.907 389.145 632.875 389.145 638.294C389.145 655.117 402.806 668.778 419.629 668.778C436.451 668.778 450.113 655.117 450.113 638.294C450.113 632.988 448.758 627.907 446.274 623.504H518.533V551.245C522.936 553.616 527.904 555.084 533.323 555.084C550.146 555.084 563.807 541.422 563.807 524.6C563.807 507.777 550.146 494.115 533.323 494.115Z" fill="#0096FA"/>
<path d="M911.325 754.585L835.566 712.698L793.114 711.907L764.211 721.392L768.727 730.085L785.549 728.73L764.098 739.004L770.759 747.698L814.453 736.859L783.291 755.037L788.372 762.263L821.905 753.343L798.985 766.327L803.275 773.102L836.018 764.634L856.002 782.134L872.486 784.166L911.325 754.585Z" fill="#FCAA73"/>
<path d="M981.213 775.472L956.035 759.666L895.067 730.424L860.066 806.86L1011.36 877.538L981.213 775.472Z" fill="#0096FA"/>
<path d="M613.596 411.016L632.112 410.226L627.257 441.726L616.757 441.274L613.596 411.016Z" fill="#FCAA73"/>
<path d="M612.58 405.484L592.935 406.952L601.854 449.179L616.419 447.372L612.58 405.484Z" fill="#FCAA73"/>
<path d="M594.967 413.613L578.145 416.549L586.951 444.549L598.354 442.178L594.967 413.613Z" fill="#FCAA73"/>
<path d="M579.613 421.065L565.387 424.227L574.193 443.872L583.226 441.049L579.613 421.065Z" fill="#FCAA73"/>
<path d="M812.082 473.339L866.841 438.79L916.18 559.259V425.467L909.293 418.58H818.969L812.082 425.467V473.339Z" fill="#8C3A03"/>
<path d="M914.825 530.809H894.164L891.115 501.115H921.599V524.035C921.486 527.873 918.551 530.809 914.825 530.809Z" fill="#FCAA73"/>
<path d="M402.467 415.871L384.402 419.936L397.386 449.178L407.322 445.904L402.467 415.871Z" fill="#8C3A03"/>
<path d="M402.015 410.226L421.434 406.613L423.805 449.63L409.241 451.662L402.015 410.226Z" fill="#8C3A03"/>
<path d="M421.208 413.615L438.144 412.034L437.015 441.389L425.385 441.954L421.208 413.615Z" fill="#8C3A03"/>
<path d="M437.805 416.662L452.482 416.098L449.095 437.324L439.611 436.985L437.805 416.662Z" fill="#8C3A03"/>
<path d="M255.691 754.698L327.611 706.713L369.95 702.31L399.531 709.31L395.806 718.342H378.983L401.112 726.81L395.241 736.068L350.757 728.955L383.386 744.423L378.87 752.1L344.773 746.004L368.708 756.956L364.983 764.181L331.676 758.423L313.273 777.617L296.901 781.004L255.691 754.698Z" fill="#8C3A03"/>
<path d="M274.693 725.161L89.9219 823.522L136.291 910.626L321.061 812.264L274.693 725.161Z" fill="#35DE90"/>
<path d="M163.018 853.158L102.498 663.288L8.47749 693.257L68.9976 883.127L163.018 853.158Z" fill="#35DE90"/>
</g>
<defs>
<linearGradient id="paint0_linear_18735_3123" x1="354.32" y1="701.362" x2="309.106" y2="732.497" gradientUnits="userSpaceOnUse">
<stop offset="0.1177" stop-color="#35DE90"/>
<stop offset="0.4155" stop-color="#34DB8E"/>
<stop offset="0.622" stop-color="#2FD287"/>
<stop offset="0.8009" stop-color="#28C37B"/>
<stop offset="0.9631" stop-color="#1EAD6B"/>
<stop offset="1" stop-color="#1BA766"/>
</linearGradient>
<linearGradient id="paint1_linear_18735_3123" x1="244.361" y1="587.557" x2="120.927" y2="881.874" gradientUnits="userSpaceOnUse">
<stop offset="0.1177" stop-color="#35DE90"/>
<stop offset="0.4155" stop-color="#34DB8E"/>
<stop offset="0.622" stop-color="#2FD287"/>
<stop offset="0.8009" stop-color="#28C37B"/>
<stop offset="0.9631" stop-color="#1EAD6B"/>
<stop offset="1" stop-color="#1BA766"/>
</linearGradient>
<linearGradient id="paint2_linear_18735_3123" x1="851.522" y1="736.824" x2="938.647" y2="869.608" gradientUnits="userSpaceOnUse">
<stop offset="0.0366836" stop-color="#0096FA"/>
<stop offset="0.2355" stop-color="#0094F7"/>
<stop offset="0.3992" stop-color="#018CED"/>
<stop offset="0.5505" stop-color="#027FDB"/>
<stop offset="0.6942" stop-color="#036CC3"/>
<stop offset="0.8328" stop-color="#0454A4"/>
<stop offset="0.9656" stop-color="#06377E"/>
<stop offset="1" stop-color="#072F73"/>
</linearGradient>
<linearGradient id="paint3_linear_18735_3123" x1="667.387" y1="689.955" x2="817.003" y2="789.024" gradientUnits="userSpaceOnUse">
<stop offset="0.4601" stop-color="#0096FA"/>
<stop offset="0.5507" stop-color="#0189EA"/>
<stop offset="0.729" stop-color="#0369BF"/>
<stop offset="0.9756" stop-color="#07347A"/>
<stop offset="1" stop-color="#072F73"/>
</linearGradient>
<clipPath id="clip0_18735_3123">
<rect width="1080" height="1080" fill="white" transform="translate(0 0.513672)"/>
</clipPath>
</defs>
</svg>
